assets/icons/24px/stroke/chevron-right-24px.svg

<svg width="24" height="24" viewBox="0 0 24 24" fill="none" xmlns="http://www.w3.org/2000/svg">
<g clip-path="url(#clip0_878_22080)">
<g clip-path="url(#clip1_878_22080)">
<path fill-rule="evenodd" clip-rule="evenodd" d="M14.8766 11.3817C14.5935 11.0107 14.1512 10.5653 13.4645 9.87868L8.29295 4.70711C7.90243 4.31658 7.90243 3.68342 8.29295 3.29289C8.68348 2.90237 9.31664 2.90237 9.70716 3.29289L14.8787 8.46447C14.8943 8.48004 14.9098 8.49556 14.9253 8.51102C15.5522 9.13782 16.0923 9.67789 16.4667 10.1685C16.8679 10.6944 17.1716 11.2792 17.1716 12C17.1716 12.7208 16.8679 13.3056 16.4667 13.8315C16.0923 14.3221 15.5522 14.8622 14.9253 15.489L9.70716 20.7071C9.31664 21.0976 8.68348 21.0976 8.29295 20.7071C7.90243 20.3166 7.90243 19.6834 8.29295 19.2929L13.4645 14.1213C14.1512 13.4347 14.5935 12.9893 14.8766 12.6183C15.1421 12.2704 15.1716 12.1077 15.1716 12C15.1716 11.8923 15.1421 11.7296 14.8766 11.3817Z" fill="white"/>
<path fill-rule="evenodd" clip-rule="evenodd" d="M14.8766 11.3817C14.5935 11.0107 14.1512 10.5653 13.4645 9.87868L8.29295 4.70711C7.90243 4.31658 7.90243 3.68342 8.29295 3.29289C8.68348 2.90237 9.31664 2.90237 9.70716 3.29289L14.8787 8.46447C14.8943 8.48004 14.9098 8.49556 14.9253 8.51102C15.5522 9.13782 16.0923 9.67789 16.4667 10.1685C16.8679 10.6944 17.1716 11.2792 17.1716 12C17.1716 12.7208 16.8679 13.3056 16.4667 13.8315C16.0923 14.3221 15.5522 14.8622 14.9253 15.489L9.70716 20.7071C9.31664 21.0976 8.68348 21.0976 8.29295 20.7071C7.90243 20.3166 7.90243 19.6834 8.29295 19.2929L13.4645 14.1213C14.1512 13.4347 14.5935 12.9893 14.8766 12.6183C15.1421 12.2704 15.1716 12.1077 15.1716 12C15.1716 11.8923 15.1421 11.7296 14.8766 11.3817Z" fill="white"/>
</g>
</g>
<defs>
<clipPath id="clip0_878_22080">
<rect width="24" height="24" fill="white"/>
</clipPath>
<clipPath id="clip1_878_22080">
<rect width="24" height="24" fill="white" transform="translate(24) rotate(90)"/>
</clipPath>
</defs>
</svg>

<svg width="24" height="24" fill="none" xmlns="http://www.w3.org/2000/svg"><g clip-path="url(#clip0_878_22080)"><g clip-path="url(#clip1_878_22080)" fill-rule="evenodd" clip-rule="evenodd" fill="#fff"><path d="M14.877 11.382c-.284-.371-.726-.817-1.413-1.503L8.293 4.707a1 1 0 0 1 1.414-1.414l5.172 5.171.046.047c.627.627 1.167 1.167 1.542 1.658.4.525.705 1.11.705 1.831 0 .72-.304 1.306-.705 1.832-.375.49-.915 1.03-1.542 1.657l-5.218 5.218a1 1 0 0 1-1.414-1.414l5.171-5.172c.687-.686 1.13-1.132 1.413-1.503.265-.348.295-.51.295-.618 0-.108-.03-.27-.295-.618z"/><path d="M14.877 11.382c-.284-.371-.726-.817-1.413-1.503L8.293 4.707a1 1 0 0 1 1.414-1.414l5.172 5.171.046.047c.627.627 1.167 1.167 1.542 1.658.4.525.705 1.11.705 1.831 0 .72-.304 1.306-.705 1.832-.375.49-.915 1.03-1.542 1.657l-5.218 5.218a1 1 0 0 1-1.414-1.414l5.171-5.172c.687-.686 1.13-1.132 1.413-1.503.265-.348.295-.51.295-.618 0-.108-.03-.27-.295-.618z"/></g></g><defs><clipPath id="clip0_878_22080"><path fill="#fff" d="M0 0H24V24H0z"/></clipPath><clipPath id="clip1_878_22080"><path fill="#fff" transform="rotate(90 12 12)" d="M0 0H24V24H0z"/></clipPath></defs></svg>
